src/export/LogoEnterprise.svg

<?xml version="1.0" encoding="UTF-8"?>
<svg width="150px" height="36px" viewBox="0 0 150 36" version="1.1" xmlns="http://www.w3.org/2000/svg" xmlns:xlink="http://www.w3.org/1999/xlink">
    <!-- Generator: Sketch 49.3 (51167) - http://www.bohemiancoding.com/sketch -->
    <title>LogoEnterprise</title>
    <desc>Created with Sketch.</desc>
    <defs></defs>
    <g id="LogoEnterprise" stroke="none" stroke-width="1" fill="none" fill-rule="evenodd">
        <path d="M33.9,18.6 L32.2,18.4 C30.9,18.3 30.3,17.8 30.3,16.8 C30.3,15.7 31.1,15 32.7,15 C33.8,15 34.8,15.3 35.5,15.8 L36.5,14.8 C35.5,14 34.2,13.7 32.7,13.7 C30.4,13.7 28.8,14.9 28.8,16.8 C28.8,18.6 29.9,19.5 32,19.7 L33.8,19.9 C35,20 35.6,20.5 35.6,21.5 C35.6,22.8 34.5,23.4 32.8,23.4 C31.5,23.4 30.3,23.1 29.5,22.2 L28.5,23.2 C29.7,24.3 31.1,24.7 32.9,24.7 C35.5,24.7 37.2,23.5 37.2,21.5 C37,19.5 35.7,18.8 33.9,18.6 L33.9,18.6 Z M47.2,13.8 C45.5,13.8 44.4,14.1 43.5,15.3 L44.5,16.3 C45.1,15.4 45.8,15.1 47.2,15.1 C49.1,15.1 49.9,15.9 49.9,17.4 L49.9,18.4 L46.7,18.4 C44.3,18.4 43,19.6 43,21.5 C43,22.3 43.3,23.1 43.8,23.7 C44.5,24.4 45.3,24.7 46.8,24.7 C48.2,24.7 49,24.4 49.9,23.6 L49.9,24.6 L51.5,24.6 L51.5,17.4 C51.4,15 50,13.8 47.2,13.8 L47.2,13.8 Z M49.9,20.8 C49.9,21.7 49.7,22.3 49.4,22.6 C48.7,23.2 47.9,23.3 47,23.3 C45.3,23.3 44.6,22.7 44.6,21.5 C44.6,20.3 45.4,19.6 47,19.6 L50,19.6 L49.9,20.8 L49.9,20.8 Z M57.5,15.2 C58.5,15.2 59.1,15.5 59.9,16.4 L60.9,15.4 C59.8,14.2 58.9,13.8 57.4,13.8 C54.7,13.8 52.7,15.6 52.7,19.3 C52.7,22.9 54.7,24.8 57.4,24.8 C58.9,24.8 59.8,24.4 60.9,23.2 L59.8,22.2 C59,23.1 58.4,23.4 57.4,23.4 C56.4,23.4 55.5,23 54.9,22.2 C54.4,21.5 54.2,20.7 54.2,19.3 C54.2,18 54.4,17.1 54.9,16.4 C55.6,15.6 56.5,15.2 57.5,15.2 Z M70.9,13.9 L69,13.9 L64.2,18.6 L64.2,9.1 L62.6,9.1 L62.6,24.5 L64.2,24.5 L64.2,20.6 L66.1,18.7 L69.7,24.5 L71.6,24.5 L67.2,17.6 L70.9,13.9 Z M78.2,13.5723633 C76.6,13.5723633 75.5,14.1723633 74.8,14.9723633 C73.8,15.9723633 73.5,17.2723633 73.5,19.2723633 C73.5,21.2723633 73.8,22.5723633 74.8,23.5723633 C75.5,24.2723633 76.6,24.9723633 78.2,24.9723633 C79.8,24.9723633 81,24.3723633 81.6,23.5723633 C82.6,22.5723633 82.9,21.2723633 82.9,19.2723633 C82.9,17.2723633 82.6,15.9723633 81.6,14.9723633 C81,14.1723633 79.9,13.5723633 78.2,13.5723633 Z M79.5,21.8723633 C79.2,22.1723633 78.8,22.3723633 78.2,22.3723633 C77.6,22.3723633 77.2,22.1723633 76.9,21.8723633 C76.3,21.2723633 76.3,20.2723633 76.3,19.1723633 C76.3,17.9723633 76.4,17.0723633 76.9,16.4723633 C77.2,16.1723633 77.6,15.9723633 78.2,15.9723633 C78.8,15.9723633 79.2,16.1723633 79.5,16.4723633 C80.1,17.0723633 80.1,17.9723633 80.1,19.1723633 C80.2,20.3723633 80.1,21.3723633 79.5,21.8723633 Z M90.3,13.6723633 L88.1,20.5723633 L85.8,13.6723633 L82.9,13.6723633 L87,24.7723633 L89.2,24.7723633 L93.3,13.6723633 L90.3,13.6723633 L90.3,13.6723633 Z M97.9,13.5723633 C95,13.5723633 93.1,15.5723633 93.1,19.2723633 C93.1,23.7723633 95.6,24.9723633 98.2,24.9723633 C100.2,24.9723633 101.3,24.3723633 102.4,23.2723633 L100.7,21.6723633 C100,22.3723633 99.4,22.6723633 98.2,22.6723633 C96.6,22.6723633 95.8,21.6723633 95.8,20.1723633 L102.7,20.1723633 L102.7,18.9723633 C102.7,15.7723633 101,13.5723633 97.9,13.5723633 Z M95.8,18.1723633 C95.8,17.6723633 95.9,17.3723633 96.1,16.9723633 C96.4,16.2723633 97,15.7723633 98,15.7723633 C98.9,15.7723633 99.6,16.2723633 99.9,16.9723633 C100.1,17.3723633 100.1,17.6723633 100.2,18.1723633 L95.8,18.1723633 Z M106.8,14.7723633 L106.8,13.6723633 L104.1,13.6723633 L104.1,24.7723633 L106.9,24.7723633 L106.9,18.0723633 C106.9,16.6723633 107.8,16.0723633 108.7,16.0723633 C109.4,16.0723633 109.7,16.2723633 110.2,16.7723633 L112.3,14.6723633 C111.5,13.8723633 110.8,13.6723633 109.7,13.6723633 C108.4,13.5723633 107.4,14.0723633 106.8,14.7723633 L106.8,14.7723633 Z M113.1,12.4723633 L113.1,24.7723633 L115.9,24.7723633 L115.9,15.9723633 L117.9,15.9723633 L117.9,13.8723633 L115.9,13.8723633 L115.9,12.6723633 C115.9,12.0723633 116.2,11.6723633 116.9,11.6723633 L118,11.6723633 L118,9.37236328 L116.4,9.37236328 C114.1,9.37236328 113.1,10.9723633 113.1,12.4723633 L113.1,12.4723633 Z M129.3,13.5723633 C127.7,13.5723633 126.6,14.1723633 125.9,14.9723633 C124.9,15.9723633 124.6,17.2723633 124.6,19.2723633 C124.6,21.2723633 124.9,22.5723633 125.9,23.5723633 C126.6,24.2723633 127.7,24.9723633 129.3,24.9723633 C130.9,24.9723633 132.1,24.3723633 132.7,23.5723633 C133.7,22.5723633 134,21.2723633 134,19.2723633 C134,17.2723633 133.7,15.9723633 132.7,14.9723633 C132.1,14.1723633 130.9,13.5723633 129.3,13.5723633 Z M130.6,21.8723633 C130.3,22.1723633 129.9,22.3723633 129.3,22.3723633 C128.7,22.3723633 128.3,22.1723633 128,21.8723633 C127.4,21.2723633 127.4,20.2723633 127.4,19.1723633 C127.4,17.9723633 127.5,17.0723633 128,16.4723633 C128.3,16.1723633 128.7,15.9723633 129.3,15.9723633 C129.9,15.9723633 130.3,16.1723633 130.6,16.4723633 C131.2,17.0723633 131.2,17.9723633 131.2,19.1723633 C131.2,20.3723633 131.2,21.3723633 130.6,21.8723633 Z M147.1,13.6723633 L145.3,20.5723633 L143,13.6723633 L141,13.6723633 L138.7,20.5723633 L136.9,13.6723633 L134,13.6723633 L137.4,24.7723633 L139.7,24.7723633 L142,17.7723633 L144.3,24.7723633 L146.6,24.7723633 L150,13.6723633 L147.1,13.6723633 L147.1,13.6723633 Z M122,21.3723633 L122,9.27236328 L119.2,9.27236328 L119.2,21.5723633 C119.2,23.1723633 120.2,24.7723633 122.4,24.7723633 L124,24.7723633 L124,22.4723633 L123,22.4723633 C122.3,22.4723633 122,22.0723633 122,21.3723633 Z M41.3,15.6 L42.7,14.2 L39.7,14.2 L39.7,10.7 L38.1,10.7 L38.1,21.8 C38.1,23.4 39,24.7 40.8,24.7 L41.9,24.7 L41.9,23.4 L41.1,23.4 C40.1,23.4 39.6,22.8 39.6,21.8 L39.6,15.7 L41.3,15.7 L41.3,15.6 L41.3,15.6 Z" id="Shape" fill="#222426" fill-rule="nonzero"></path>
        <polygon id="Shape" fill="#BCBBBB" fill-rule="nonzero" points="21 27 21 19 24 19 24 30 0 30 0 19 3 19 3 27"></polygon>
        <path d="M5.40209961,19.1010742 L18.9631348,21.0610352 L19.1269531,18.6804199 L5.87133789,16.1340332 L5.40209961,19.1010742 Z M7.2,12.3 L19.2,17.9 L20.3,15.5 L8.3,9.9 L7.2,12.3 L7.2,12.3 Z M10.6,6.4 L20.8,14.9 L22.5,12.9 L12.3,4.4 L10.6,6.4 L10.6,6.4 Z M17.1,0.2 L15,1.8 L22.9,12.4 L25,10.8 L17.1,0.2 L17.1,0.2 Z M5,25 L19,25 L19,22 L5,22 L5,25 Z" id="Shape" fill="#F48024" fill-rule="nonzero"></path>
        <path d="M89.7130732,29.6293973 L86.4154074,29.6293973 L86.4154074,31.1949458 L89.1863761,31.1949458 C89.3451162,31.1949458 89.4733029,31.3224356 89.4733029,31.4803116 L89.4733029,32.4665411 C89.4733029,32.6244171 89.3451162,32.751907 89.1863761,32.751907 L86.4154074,32.751907 L86.4154074,34.379549 L89.7130732,34.379549 C89.8718123,34.379549 90,34.5076994 90,34.6649148 L90,35.6617134 C90,35.8189289 89.8718123,35.9470792 89.7130732,35.9470792 L85.013319,35.9470792 C84.8545789,35.9470792 84.7263922,35.8189289 84.7263922,35.6617134 L84.7263922,28.3472328 C84.7263922,28.1893568 84.8545789,28.061867 85.013319,28.061867 L89.7130732,28.061867 C89.8718123,28.061867 90,28.1893568 90,28.3472328 L90,29.3440314 C90,29.5019074 89.8718123,29.6293973 89.7130732,29.6293973 Z M81.424726,31.2460612 C82.1393283,31.3536254 82.5799005,31.5311392 82.9468234,31.8597707 C83.3993388,32.2524128 83.6401933,32.8443455 83.6401933,33.5702384 C83.6401933,35.0233441 82.4637864,36 80.7121138,36 C79.4753267,36 78.6366471,35.6858863 77.9074466,34.9500949 C77.7966405,34.8379114 77.7979675,34.657758 77.9107646,34.5468943 L78.6538985,33.8183618 C78.7653685,33.708818 78.9458439,33.7094779 79.057314,33.8196816 C79.4965591,34.2565372 79.9815862,34.4347109 80.7326822,34.4347109 C81.1918327,34.4347109 81.9628341,34.325827 81.9628341,33.6005939 C81.9628341,33.4296791 81.9296584,33.1960736 81.7697524,33.0535346 C81.639704,32.9321125 81.5215988,32.8733812 81.1155293,32.8159697 L80.2489821,32.6925679 C79.6047112,32.6041409 79.0692572,32.3764745 78.7003443,32.033985 C78.2836586,31.6433226 78.0726616,31.1035223 78.0726616,30.4297616 C78.0726616,28.976656 79.1754192,28 80.8156217,28 C81.8659613,28 82.606441,28.27122 83.2918498,28.9080261 C83.3489118,28.9608183 83.3814235,29.0347274 83.3827505,29.111936 C83.3834145,29.1898045 83.3528929,29.2650334 83.2971579,29.3191455 L82.5852086,30.0173225 C82.4750656,30.1262064 82.2979083,30.1268663 82.1857742,30.020622 C81.8274775,29.6801122 81.4081377,29.5349336 80.7844361,29.5349336 C80.1242418,29.5349336 79.7294515,29.8543265 79.7294515,30.3888477 C79.7294515,30.5920977 79.7898316,30.7438753 79.9125809,30.8534192 C80.0552365,30.9794606 80.3086983,31.0804257 80.5900275,31.1226594 L81.424726,31.2460612 Z M76.0681047,28.061867 L77.178658,28.061867 C77.3367421,28.061867 77.4643991,28.1888299 77.4643991,28.3460536 L77.4643991,35.6303075 C77.4643991,35.7868733 77.3367421,35.9144941 77.178658,35.9144941 L76.0681047,35.9144941 C75.9100206,35.9144941 75.7823637,35.7868733 75.7823637,35.6303075 L75.7823637,28.3460536 C75.7823637,28.1888299 75.9100206,28.061867 76.0681047,28.061867 Z M73.2348113,32.6029667 L74.7823506,35.5585277 C74.8290235,35.6473868 74.825023,35.7541504 74.7730161,35.8396939 C74.7210091,35.9252374 74.6276634,35.9776245 74.5269829,35.9776245 L73.2201427,35.9776245 C73.1114621,35.9776245 73.0114488,35.9159536 72.9627752,35.8191369 L71.4872464,32.8834698 L70.5531219,32.8834698 L70.5531219,35.6911532 C70.5531219,35.8489777 70.4244386,35.9776245 70.2650836,35.9776245 L69.1456021,35.9776245 C68.9862471,35.9776245 68.8575638,35.8489777 68.8575638,35.6911532 L68.8575638,28.3483382 C68.8575638,28.1898506 68.9862471,28.061867 69.1456021,28.061867 L72.0073154,28.061867 C73.5261838,28.061867 74.5869909,29.0618638 74.5869909,30.4935569 C74.5869909,31.4603974 74.0775899,32.241562 73.2348113,32.6029667 Z M70.5531219,31.3622544 L71.9239706,31.3622544 C72.2146758,31.3622544 72.8907656,31.2780372 72.8907656,30.504167 C72.8907656,29.959739 72.5293843,29.6354695 71.9239706,29.6354695 L70.5531219,29.6354695 L70.5531219,31.3622544 Z M62.2100625,28.061867 L65.0029005,28.061867 C66.5606108,28.061867 67.648081,29.0931475 67.648081,30.5696183 C67.648081,32.0467506 66.5606108,33.078031 65.0029005,33.078031 L63.6141306,33.078031 L63.6141306,35.6724389 C63.6141306,35.8298762 63.485762,35.9582075 63.3267989,35.9582075 L62.2100625,35.9582075 C62.0510993,35.9582075 61.9227307,35.8298762 61.9227307,35.6724389 L61.9227307,28.3476355 C61.9227307,28.1895367 62.0510993,28.061867 62.2100625,28.061867 Z M63.6141306,31.4977045 L64.9410439,31.4977045 C65.5868756,31.4977045 65.9566821,31.1596774 65.9566821,30.5696183 C65.9566821,29.9822051 65.5768983,29.6316095 64.9410439,29.6316095 L63.6141306,29.6316095 L63.6141306,31.4977045 Z M59.2987731,32.5641066 L60.8324079,35.4943756 C60.8786814,35.5824743 60.8747151,35.6883243 60.8231532,35.7731357 C60.7715914,35.8579472 60.6790444,35.909886 60.5792265,35.909886 L59.2835694,35.909886 C59.1758179,35.909886 59.0766605,35.8487428 59.0284043,35.7527547 L57.5655013,32.8422093 L56.6393714,32.8422093 L56.6393714,35.6258662 C56.6393714,35.7823401 56.5117884,35.909886 56.353798,35.909886 L55.2438954,35.909886 C55.0859051,35.909886 54.9583221,35.7823401 54.9583221,35.6258662 L54.9583221,28.3458868 C54.9583221,28.1887554 55.0859051,28.061867 55.2438954,28.061867 L58.0811199,28.061867 C59.5869907,28.061867 60.6387209,29.0533064 60.6387209,30.4727479 C60.6387209,31.4313147 60.1336791,32.2057946 59.2987731,32.5641066 Z M56.6393714,31.3340116 L57.9984892,31.3340116 C58.2867068,31.3340116 58.957011,31.2505151 58.957011,30.4832672 C58.957011,29.9434981 58.5987221,29.6220035 57.9984892,29.6220035 L56.6393714,29.6220035 L56.6393714,31.3340116 Z M49.1877804,28.061867 L53.8724588,28.061867 C54.0306897,28.061867 54.1584652,28.1889478 54.1584652,28.3463174 L54.1584652,29.3399185 C54.1584652,29.4972881 54.0306897,29.624369 53.8724588,29.624369 L50.5860337,29.624369 L50.5860337,31.1848956 L53.3474522,31.1848956 C53.5056821,31.1848956 53.6334586,31.3119764 53.6334586,31.469346 L53.6334586,32.4524119 C53.6334586,32.6097814 53.5056821,32.7368623 53.3474522,32.7368623 L50.5860337,32.7368623 L50.5860337,34.3592832 L53.8724588,34.3592832 C54.0306897,34.3592832 54.1584652,34.4870225 54.1584652,34.6437336 L54.1584652,35.6373347 C54.1584652,35.7940459 54.0306897,35.9217852 53.8724588,35.9217852 L49.1877804,35.9217852 C49.0302121,35.9217852 48.901774,35.7940459 48.901774,35.6373347 L48.901774,28.3463174 C48.901774,28.1889478 49.0302121,28.061867 49.1877804,28.061867 Z M42.2880752,28.061867 L47.4684506,28.061867 C47.6276925,28.061867 47.7562862,28.1897606 47.7562862,28.3481367 L47.7562862,29.3480927 C47.7562862,29.5064688 47.6276925,29.6343625 47.4684506,29.6343625 L45.725446,29.6343625 L45.725446,35.6857862 C45.725446,35.8434996 45.5968523,35.9720559 45.4376103,35.9720559 L44.3189154,35.9720559 C44.1596735,35.9720559 44.0310798,35.8434996 44.0310798,35.6857862 L44.0310798,29.6343625 L42.2880752,29.6343625 C42.1288333,29.6343625 42.0002396,29.5064688 42.0002396,29.3480927 L42.0002396,28.3481367 C42.0002396,28.1897606 42.1288333,28.061867 42.2880752,28.061867 Z M39.6820176,28.061867 L40.8003344,28.061867 C40.9594277,28.061867 41.0879015,28.1896413 41.0879015,28.3478697 L41.0879015,35.6786753 C41.0879015,35.8362416 40.9594277,35.964678 40.8003344,35.964678 L39.7752107,35.964678 C39.6786888,35.964678 39.5881584,35.9156868 39.5349053,35.8355796 L36.6579024,31.4773485 L36.6579024,35.6786753 C36.6579024,35.8362416 36.5287634,35.964678 36.36967,35.964678 L35.2520185,35.964678 C35.0929251,35.964678 34.9644514,35.8362416 34.9644514,35.6786753 L34.9644514,28.3478697 C34.9644514,28.1896413 35.0929251,28.061867 35.2520185,28.061867 L36.276477,28.061867 C36.373664,28.061867 36.4635283,28.1101961 36.5167815,28.1909654 L39.3944505,32.54059 L39.3944505,28.3478697 C39.3944505,28.1896413 39.5235894,28.061867 39.6820176,28.061867 Z M29.2856767,28.061867 L33.9649557,28.061867 C34.1230041,28.061867 34.2506324,28.1888013 34.2506324,28.3459896 L34.2506324,29.3384455 C34.2506324,29.4956337 34.1230041,29.622568 33.9649557,29.622568 L30.6823185,29.622568 L30.6823185,31.181296 L33.4405542,31.181296 C33.5986017,31.181296 33.7262309,31.3082304 33.7262309,31.4654186 L33.7262309,32.4473514 C33.7262309,32.6045396 33.5986017,32.731474 33.4405542,32.731474 L30.6823185,32.731474 L30.6823185,34.3520249 L33.9649557,34.3520249 C34.1230041,34.3520249 34.2506324,34.479617 34.2506324,34.6361475 L34.2506324,35.6286034 C34.2506324,35.7851338 34.1230041,35.9127259 33.9649557,35.9127259 L29.2856767,35.9127259 C29.1276292,35.9127259 29,35.7851338 29,35.6286034 L29,28.3459896 C29,28.1888013 29.1276292,28.061867 29.2856767,28.061867 Z" id="Shape" fill="#F48024"></path>
    </g>
</svg>

<svg width="150" height="36" xmlns="http://www.w3.org/2000/svg"><g fill="none" fill-rule="evenodd"><path d="M33.9 18.6l-1.7-.2c-1.3-.1-1.9-.6-1.9-1.6 0-1.1.8-1.8 2.4-1.8 1.1 0 2.1.3 2.8.8l1-1c-1-.8-2.3-1.1-3.8-1.1-2.3 0-3.9 1.2-3.9 3.1 0 1.8 1.1 2.7 3.2 2.9l1.8.2c1.2.1 1.8.6 1.8 1.6 0 1.3-1.1 1.9-2.8 1.9-1.3 0-2.5-.3-3.3-1.2l-1 1c1.2 1.1 2.6 1.5 4.4 1.5 2.6 0 4.3-1.2 4.3-3.2-.2-2-1.5-2.7-3.3-2.9zm13.3-4.8c-1.7 0-2.8.3-3.7 1.5l1 1c.6-.9 1.3-1.2 2.7-1.2 1.9 0 2.7.8 2.7 2.3v1h-3.2c-2.4 0-3.7 1.2-3.7 3.1 0 .8.3 1.6.8 2.2.7.7 1.5 1 3 1 1.4 0 2.2-.3 3.1-1.1v1h1.6v-7.2c-.1-2.4-1.5-3.6-4.3-3.6zm2.7 7c0 .9-.2 1.5-.5 1.8-.7.6-1.5.7-2.4.7-1.7 0-2.4-.6-2.4-1.8 0-1.2.8-1.9 2.4-1.9h3l-.1 1.2zm7.6-5.6c1 0 1.6.3 2.4 1.2l1-1c-1.1-1.2-2-1.6-3.5-1.6-2.7 0-4.7 1.8-4.7 5.5 0 3.6 2 5.5 4.7 5.5 1.5 0 2.4-.4 3.5-1.6l-1.1-1c-.8.9-1.4 1.2-2.4 1.2s-1.9-.4-2.5-1.2c-.5-.7-.7-1.5-.7-2.9 0-1.3.2-2.2.7-2.9.7-.8 1.6-1.2 2.6-1.2zm13.4-1.3H69l-4.8 4.7V9.1h-1.6v15.4h1.6v-3.9l1.9-1.9 3.6 5.8h1.9l-4.4-6.9 3.7-3.7zm7.3-.328c-1.6 0-2.7.6-3.4 1.4-1 1-1.3 2.3-1.3 4.3s.3 3.3 1.3 4.3c.7.7 1.8 1.4 3.4 1.4 1.6 0 2.8-.6 3.4-1.4 1-1 1.3-2.3 1.3-4.3s-.3-3.3-1.3-4.3c-.6-.8-1.7-1.4-3.4-1.4zm1.3 8.3c-.3.3-.7.5-1.3.5-.6 0-1-.2-1.3-.5-.6-.6-.6-1.6-.6-2.7 0-1.2.1-2.1.6-2.7.3-.3.7-.5 1.3-.5.6 0 1 .2 1.3.5.6.6.6 1.5.6 2.7.1 1.2 0 2.2-.6 2.7zm10.8-8.2l-2.2 6.9-2.3-6.9h-2.9l4.1 11.1h2.2l4.1-11.1h-3zm7.6-.1c-2.9 0-4.8 2-4.8 5.7 0 4.5 2.5 5.7 5.1 5.7 2 0 3.1-.6 4.2-1.7l-1.7-1.6c-.7.7-1.3 1-2.5 1-1.6 0-2.4-1-2.4-2.5h6.9v-1.2c0-3.2-1.7-5.4-4.8-5.4zm-2.1 4.6c0-.5.1-.8.3-1.2.3-.7.9-1.2 1.9-1.2.9 0 1.6.5 1.9 1.2.2.4.2.7.3 1.2h-4.4zm11-3.4v-1.1h-2.7v11.1h2.8v-6.7c0-1.4.9-2 1.8-2 .7 0 1 .2 1.5.7l2.1-2.1c-.8-.8-1.5-1-2.6-1-1.3-.1-2.3.4-2.9 1.1zm6.3-2.3v12.3h2.8v-8.8h2v-2.1h-2v-1.2c0-.6.3-1 1-1h1.1v-2.3h-1.6c-2.3 0-3.3 1.6-3.3 3.1zm16.2 1.1c-1.6 0-2.7.6-3.4 1.4-1 1-1.3 2.3-1.3 4.3s.3 3.3 1.3 4.3c.7.7 1.8 1.4 3.4 1.4 1.6 0 2.8-.6 3.4-1.4 1-1 1.3-2.3 1.3-4.3s-.3-3.3-1.3-4.3c-.6-.8-1.8-1.4-3.4-1.4zm1.3 8.3c-.3.3-.7.5-1.3.5-.6 0-1-.2-1.3-.5-.6-.6-.6-1.6-.6-2.7 0-1.2.1-2.1.6-2.7.3-.3.7-.5 1.3-.5.6 0 1 .2 1.3.5.6.6.6 1.5.6 2.7 0 1.2 0 2.2-.6 2.7zm16.5-8.2l-1.8 6.9-2.3-6.9h-2l-2.3 6.9-1.8-6.9H134l3.4 11.1h2.3l2.3-7 2.3 7h2.3l3.4-11.1h-2.9zm-25.1 7.7v-12.1h-2.8v12.3c0 1.6 1 3.2 3.2 3.2h1.6v-2.3h-1c-.7 0-1-.4-1-1.1zM41.3 15.6l1.4-1.4h-3v-3.5h-1.6v11.1c0 1.6.9 2.9 2.7 2.9h1.1v-1.3h-.8c-1 0-1.5-.6-1.5-1.6v-6.1h1.7v-.1z" fill="#222426" fill-rule="nonzero"/><path fill="#BCBBBB" fill-rule="nonzero" d="M21 27v-8h3v11H0V19h3v8z"/><path d="M5.402 19.101l13.561 1.96.164-2.38-13.256-2.547-.469 2.967zM7.2 12.3l12 5.6 1.1-2.4-12-5.6-1.1 2.4zm3.4-5.9l10.2 8.5 1.7-2-10.2-8.5-1.7 2zM17.1.2L15 1.8l7.9 10.6 2.1-1.6L17.1.2zM5 25h14v-3H5v3z" fill="#F48024" fill-rule="nonzero"/><path d="M89.713 29.63h-3.298v1.565h2.771c.16 0 .287.127.287.285v.987a.286.286 0 0 1-.287.285h-2.77v1.628h3.297c.159 0 .287.128.287.285v.997a.286.286 0 0 1-.287.285h-4.7a.286.286 0 0 1-.287-.285v-7.315c0-.158.129-.285.287-.285h4.7c.159 0 .287.127.287.285v.997a.286.286 0 0 1-.287.285zm-8.288 1.616c.714.108 1.155.285 1.522.614.452.392.693.984.693 1.71 0 1.453-1.176 2.43-2.928 2.43-1.237 0-2.075-.314-2.805-1.05a.284.284 0 0 1 .004-.403l.743-.729a.288.288 0 0 1 .403.002c.44.437.925.615 1.676.615.459 0 1.23-.11 1.23-.834 0-.171-.033-.405-.193-.547-.13-.122-.248-.18-.654-.238l-.867-.123c-.644-.089-1.18-.317-1.549-.659-.416-.39-.627-.93-.627-1.604 0-1.453 1.102-2.43 2.743-2.43 1.05 0 1.79.271 2.476.908a.284.284 0 0 1 .005.411l-.712.698a.288.288 0 0 1-.4.004c-.358-.34-.777-.486-1.4-.486-.66 0-1.056.32-1.056.854 0 .203.06.355.184.464.142.126.396.227.677.27l.835.123zm-5.357-3.184h1.11c.159 0 .286.127.286.284v7.284a.285.285 0 0 1-.285.284h-1.11a.285.285 0 0 1-.287-.284v-7.284c0-.157.128-.284.286-.284zm-2.833 4.541l1.547 2.956a.286.286 0 0 1-.255.419H73.22a.289.289 0 0 1-.257-.159l-1.476-2.936h-.934v2.808a.287.287 0 0 1-.288.287h-1.12a.287.287 0 0 1-.287-.287v-7.343c0-.158.128-.286.288-.286h2.861c1.52 0 2.58 1 2.58 2.432 0 .966-.51 1.748-1.352 2.109zm-2.682-1.24h1.371c.29 0 .967-.085.967-.859 0-.544-.362-.869-.967-.869h-1.37v1.727zm-8.343-3.301h2.793c1.558 0 2.645 1.031 2.645 2.508s-1.087 2.508-2.645 2.508h-1.389v2.594a.287.287 0 0 1-.287.286H62.21a.287.287 0 0 1-.287-.286v-7.324c0-.158.128-.286.287-.286zm1.404 3.436h1.327c.646 0 1.016-.338 1.016-.928 0-.588-.38-.938-1.016-.938h-1.327v1.866zM59.3 32.564l1.533 2.93a.283.283 0 0 1-.253.416h-1.295a.286.286 0 0 1-.256-.157l-1.462-2.91h-.927v2.783a.285.285 0 0 1-.285.284h-1.11a.285.285 0 0 1-.286-.284v-7.28c0-.157.128-.284.286-.284h2.837c1.506 0 2.558.991 2.558 2.41 0 .96-.505 1.734-1.34 2.092zm-2.66-1.23H58c.288 0 .958-.083.958-.85 0-.54-.358-.862-.959-.862H56.64v1.712zm-7.451-3.272h4.684c.159 0 .286.127.286.284v.994a.285.285 0 0 1-.286.284h-3.286v1.56h2.761c.159 0 .286.128.286.285v.983a.285.285 0 0 1-.286.285h-2.761v1.622h3.286c.159 0 .286.128.286.285v.993a.285.285 0 0 1-.286.285h-4.684a.286.286 0 0 1-.286-.285v-7.29c0-.158.128-.285.286-.285zm-6.9 0h5.18c.16 0 .288.128.288.286v1a.287.287 0 0 1-.288.286h-1.743v6.052a.287.287 0 0 1-.287.286h-1.12a.287.287 0 0 1-.287-.286v-6.052h-1.743a.287.287 0 0 1-.288-.286v-1c0-.158.129-.286.288-.286zm-2.606 0H40.8c.16 0 .288.128.288.286v7.33a.287.287 0 0 1-.288.287h-1.025a.29.29 0 0 1-.24-.13l-2.877-4.358v4.202c0 .157-.13.286-.288.286h-1.118a.287.287 0 0 1-.288-.286v-7.331c0-.158.129-.286.288-.286h1.024c.098 0 .188.048.24.129l2.878 4.35v-4.193c0-.158.13-.286.288-.286zm-10.396 0h4.679c.158 0 .286.127.286.284v.992a.285.285 0 0 1-.286.285h-3.283v1.558h2.759c.158 0 .285.127.285.284v.982a.285.285 0 0 1-.285.284h-2.759v1.621h3.283c.158 0 .286.128.286.284v.993a.285.285 0 0 1-.286.284h-4.68a.285.285 0 0 1-.285-.284v-7.283c0-.157.128-.284.286-.284z" fill="#F48024"/></g></svg>
